actions/64/edit-delete.svg

<?xml version="1.0" encoding="UTF-8" standalone="no"?>
<svg
   xmlns:dc="http://purl.org/dc/elements/1.1/"
   xmlns:cc="http://creativecommons.org/ns#"
   xmlns:rdf="http://www.w3.org/1999/02/22-rdf-syntax-ns#"
   xmlns:svg="http://www.w3.org/2000/svg"
   xmlns="http://www.w3.org/2000/svg"
   xmlns:xlink="http://www.w3.org/1999/xlink"
   xmlns:sodipodi="http://sodipodi.sourceforge.net/DTD/sodipodi-0.dtd"
   xmlns:inkscape="http://www.inkscape.org/namespaces/inkscape"
   version="1.1"
   width="64"
   height="64"
   id="svg3489"
   inkscape:version="0.91 r13725"
   sodipodi:docname="edit-delete.svg">
  <sodipodi:namedview
     pagecolor="#ffffff"
     bordercolor="#666666"
     borderopacity="1"
     objecttolerance="10"
     gridtolerance="10"
     guidetolerance="10"
     inkscape:pageopacity="0"
     inkscape:pageshadow="2"
     inkscape:window-width="1366"
     inkscape:window-height="712"
     id="namedview48"
     showgrid="false"
     inkscape:zoom="1"
     inkscape:cx="12.967223"
     inkscape:cy="31.757194"
     inkscape:window-x="0"
     inkscape:window-y="30"
     inkscape:window-maximized="1"
     inkscape:current-layer="svg3489">
    <inkscape:grid
       type="xygrid"
       id="grid4176" />
  </sodipodi:namedview>
  <defs
     id="defs3491">
    <linearGradient
       id="linearGradient4806">
      <stop
         id="stop4808"
         style="stop-color:#ffffff;stop-opacity:1"
         offset="0" />
      <stop
         id="stop4810"
         style="stop-color:#ffffff;stop-opacity:0.23529412"
         offset="0.42447853" />
      <stop
         id="stop4812"
         style="stop-color:#ffffff;stop-opacity:0.15686275"
         offset="0.82089913" />
      <stop
         id="stop4814"
         style="stop-color:#ffffff;stop-opacity:0.39215687"
         offset="1" />
    </linearGradient>
    <linearGradient
       id="linearGradient3820-7-2">
      <stop
         id="stop3822-2-6"
         style="stop-color:#000000;stop-opacity:1"
         offset="0" />
      <stop
         id="stop3824-1-2"
         style="stop-color:#000000;stop-opacity:0"
         offset="1" />
    </linearGradient>
    <linearGradient
       id="linearGradient3957-2">
      <stop
         offset="0"
         style="stop-color:#ffffff;stop-opacity:1"
         id="stop3959-62" />
      <stop
         offset="1"
         style="stop-color:#c1c1c1;stop-opacity:1"
         id="stop3961-5" />
    </linearGradient>
    <linearGradient
       id="linearGradient2867-449-88-871-390-598-476-591-434-148-57-177-3-8">
      <stop
         offset="0"
         style="stop-color:#90dbec;stop-opacity:1"
         id="stop3750-8-9" />
      <stop
         offset="0.26238"
         style="stop-color:#42baea;stop-opacity:1"
         id="stop3752-3-2" />
      <stop
         offset="0.704952"
         style="stop-color:#3689e6;stop-opacity:1"
         id="stop3754-7-2" />
      <stop
         offset="1"
         style="stop-color:#2b63a0;stop-opacity:1"
         id="stop3756-9-3" />
    </linearGradient>
    <linearGradient
       id="linearGradient3957">
      <stop
         offset="0"
         style="stop-color:#ffffff;stop-opacity:1"
         id="stop3959" />
      <stop
         offset="1"
         style="stop-color:#c1c1c1;stop-opacity:1"
         id="stop3961" />
    </linearGradient>
    <linearGradient
       id="linearGradient4168">
      <stop
         offset="0"
         style="stop-color:#f8b17e;stop-opacity:1"
         id="stop4170" />
      <stop
         offset="0.23208089"
         style="stop-color:#e35d4f;stop-opacity:1"
         id="stop4172" />
      <stop
         offset="0.5908742"
         style="stop-color:#c6262e;stop-opacity:1"
         id="stop4174" />
      <stop
         offset="1"
         style="stop-color:#690b54;stop-opacity:1"
         id="stop4176" />
    </linearGradient>
    <linearGradient
       xlink:href="#linearGradient4806"
       id="linearGradient3293"
       gradientUnits="userSpaceOnUse"
       gradientTransform="matrix(2.3268746,0,0,2.3268746,-135.94475,-32.842783)"
       x1="71.204407"
       y1="15.369057"
       x2="71.204407"
       y2="40.495617" />
    <radialGradient
       xlink:href="#linearGradient3820-7-2"
       id="radialGradient3300"
       gradientUnits="userSpaceOnUse"
       gradientTransform="matrix(0.3823536,7.5555777e-8,-1.8372241e-8,0.1115198,-5.9254271,36.335849)"
       cx="99.189415"
       cy="185.29727"
       fx="99.189415"
       fy="185.29727"
       r="62.769119" />
    <linearGradient
       xlink:href="#linearGradient3957"
       id="linearGradient4131"
       gradientUnits="userSpaceOnUse"
       gradientTransform="translate(8.0000046,8.0000026)"
       x1="24"
       y1="22"
       x2="24"
       y2="26" />
    <linearGradient
       xlink:href="#linearGradient3957-2"
       id="linearGradient4137"
       gradientUnits="userSpaceOnUse"
       gradientTransform="matrix(1.4390244,0,0,1.4390244,-2.536585,-2.5365857)"
       x1="21.013996"
       y1="25.433903"
       x2="22.805599"
       y2="27.343702" />
    <linearGradient
       xlink:href="#linearGradient4168"
       id="linearGradient4140"
       gradientUnits="userSpaceOnUse"
       gradientTransform="matrix(1.4390244,0,0,1.4390244,-2.536585,-2.5365857)"
       x1="27.92535"
       y1="15.149301"
       x2="33.447899"
       y2="22.986004" />
    <radialGradient
       xlink:href="#linearGradient4168"
       id="radialGradient4145"
       gradientUnits="userSpaceOnUse"
       gradientTransform="matrix(-8.4508511e-6,3.8890437,-3.8040162,-8.371941e-6,64.143254,-21.229008)"
       cx="5.2015562"
       cy="8.4498091"
       fx="5.2015562"
       fy="8.4498091"
       r="19.99999" />
    <radialGradient
       inkscape:collect="always"
       xlink:href="#linearGradient3820-7-2"
       id="radialGradient4192"
       gradientUnits="userSpaceOnUse"
       gradientTransform="matrix(0.2549024,5.3967361e-8,-1.2248161e-8,0.07965545,6.7163816,44.240666)"
       cx="99.189415"
       cy="185.29727"
       fx="99.189415"
       fy="185.29727"
       r="62.769119" />
    <linearGradient
       xlink:href="#linearGradient5803-2-7-6"
       id="linearGradient3124-5"
       gradientUnits="userSpaceOnUse"
       gradientTransform="matrix(0.78170612,0,0,0.77580763,-38.19925,6.9191079)"
       x1="90.944229"
       y1="16.591679"
       x2="90.944229"
       y2="56.571861" />
    <linearGradient
       id="linearGradient5803-2-7-6">
      <stop
         offset="0"
         style="stop-color:#fffdf3;stop-opacity:1"
         id="stop5805-3-6-9" />
      <stop
         offset="1"
         style="stop-color:#fbebeb;stop-opacity:1"
         id="stop5807-0-0-0" />
    </linearGradient>
    <linearGradient
       gradientTransform="matrix(1.3243242,0,0,1.3243242,27.001563,-16.082103)"
       gradientUnits="userSpaceOnUse"
       xlink:href="#linearGradient4011"
       id="linearGradient3288"
       y2="44.340794"
       x2="71.204407"
       y1="6.2375584"
       x1="71.204407" />
    <linearGradient
       id="linearGradient4011">
      <stop
         offset="0"
         style="stop-color:#ffffff;stop-opacity:1"
         id="stop4013" />
      <stop
         offset="0.507761"
         style="stop-color:#ffffff;stop-opacity:0.23529412"
         id="stop4015" />
      <stop
         offset="0.83456558"
         style="stop-color:#ffffff;stop-opacity:0.15686275"
         id="stop4017" />
      <stop
         offset="1"
         style="stop-color:#ffffff;stop-opacity:0.39215687"
         id="stop4019" />
    </linearGradient>
    <radialGradient
       xlink:href="#linearGradient3242"
       id="radialGradient3022"
       gradientUnits="userSpaceOnUse"
       gradientTransform="matrix(0,3.621583,-4.7804251,0,141.07391,-95.57386)"
       cx="21.994528"
       cy="4.0384412"
       fx="21.994528"
       fy="4.0384412"
       r="20.397499" />
    <linearGradient
       id="linearGradient3242">
      <stop
         offset="0"
         style="stop-color:#f8b17e;stop-opacity:1"
         id="stop3244" />
      <stop
         offset="0.26238"
         style="stop-color:#e35d4f;stop-opacity:1"
         id="stop3246" />
      <stop
         offset="0.66093999"
         style="stop-color:#c6262e;stop-opacity:1"
         id="stop3248" />
      <stop
         offset="1"
         style="stop-color:#690b54;stop-opacity:1"
         id="stop3250" />
    </linearGradient>
    <radialGradient
       xlink:href="#linearGradient3820-7-2"
       id="radialGradient3300-1"
       gradientUnits="userSpaceOnUse"
       gradientTransform="matrix(0.3823536,7.5555777e-8,-1.8372241e-8,0.1115198,-5.9254271,36.335849)"
       cx="99.189415"
       cy="185.29727"
       fx="99.189415"
       fy="185.29727"
       r="62.769119" />
    <linearGradient
       gradientTransform="translate(0.759145,-2.1482323)"
       x1="40"
       y1="31.082113"
       x2="40"
       y2="37.3153"
       id="linearGradient3951"
       xlink:href="#linearGradient3820-7-2"
       gradientUnits="userSpaceOnUse" />
  </defs>
  <metadata
     id="metadata3494">
    <rdf:RDF>
      <cc:Work
         rdf:about="">
        <dc:format>image/svg+xml</dc:format>
        <dc:type
           rdf:resource="http://purl.org/dc/dcmitype/StillImage" />
        <dc:title></dc:title>
      </cc:Work>
    </rdf:RDF>
  </metadata>
  <g
     id="g4198">
    <path
       inkscape:connector-curvature="0"
       d="m 55.999998,57.0017 a 24,6.9985714 0 1 1 -47.9999991,0 24,6.9985714 0 1 1 47.9999991,0 z"
       id="path3818-0"
       style="opacity:0.2;fill:url(#radialGradient3300);fill-opacity:1;stroke:none" />
    <path
       style="opacity:0.4;fill:url(#radialGradient4192);fill-opacity:1;stroke:none"
       id="path4190"
       d="m 47.999998,59.0017 a 16,4.9988822 0 1 1 -31.999999,0 16,4.9988822 0 1 1 31.999999,0 z"
       inkscape:connector-curvature="0" />
  </g>
  <path
     style="color:#000000;fill:url(#radialGradient4145);fill-opacity:1;fill-rule:nonzero;stroke:none;stroke-width:1;marker:none;visibility:visible;display:inline;overflow:visible;enable-background:accumulate"
     d="M 32 2.5 C 15.722918 2.5 2.5 15.722916 2.5 32 C 2.5 48.277084 15.722918 61.500004 32 61.5 C 48.277076 61.5 61.500016 48.277084 61.5 32 C 61.5 15.722916 48.277076 2.5 32 2.5 z M 32.070312 11.929688 A 20 20 0 0 1 52.070312 31.929688 A 20 20 0 0 1 48.96875 42.583984 L 21.404297 15.019531 A 20 20 0 0 1 32.070312 11.929688 z M 15.173828 21.273438 L 42.738281 48.837891 A 20 20 0 0 1 32.070312 51.929688 A 20 20 0 0 1 12.070312 31.929688 A 20 20 0 0 1 15.173828 21.273438 z "
     id="path2555" />
  <path
     style="opacity:0.5;color:#000000;fill:#000000;stroke:#6f0000;stroke-width:1;stroke-linecap:round;stroke-linejoin:round;stroke-miterlimit:4;stroke-opacity:1;stroke-dasharray:none;stroke-dashoffset:0;marker:none;visibility:visible;display:inline;overflow:visible;enable-background:accumulate;fill-opacity:0;fill-rule:nonzero"
     d="M 32 2.5 C 15.722918 2.5 2.5 15.722917 2.5 32 C 2.5 48.277083 15.722918 61.500005 32 61.5 C 48.27708 61.5 61.50001 48.277083 61.5 32 C 61.5 15.722917 48.27708 2.5 32 2.5 z M 32.070312 11.929688 A 20 20 0 0 1 52.070312 31.929688 A 20 20 0 0 1 48.96875 42.583984 L 21.404297 15.019531 A 20 20 0 0 1 32.070312 11.929688 z M 15.173828 21.273438 L 42.738281 48.837891 A 20 20 0 0 1 32.070312 51.929688 A 20 20 0 0 1 12.070312 31.929688 A 20 20 0 0 1 15.173828 21.273438 z "
     id="path2555-7-1" />
  <path
     style="opacity:0.5;color:#000000;fill:none;stroke:url(#linearGradient3293);stroke-width:1;stroke-linecap:round;stroke-linejoin:round;stroke-miterlimit:4;stroke-opacity:1;stroke-dasharray:none;stroke-dashoffset:0;marker:none;visibility:visible;display:inline;overflow:visible;enable-background:accumulate"
     id="path3019"
     d="m 60.50001,31.999999 c 0,15.740115 -12.7599,28.499999 -28.50002,28.499999 -15.740099,0 -28.499991,-12.759884 -28.499991,-28.499999 0,-15.740116 12.759892,-28.5000013 28.499991,-28.5000013 15.74012,0 28.50002,12.7598853 28.50002,28.5000013 z" />
  <path
     style="fill:none;fill-rule:evenodd;stroke:#ffffff;stroke-width:1px;stroke-linecap:round;stroke-linejoin:miter;stroke-opacity:1;opacity:0.2"
     d="M 21,16 48,43"
     id="path4200"
     inkscape:connector-curvature="0" />
  <path
     inkscape:connector-curvature="0"
     id="path4202"
     d="m 14.137117,20.854446 c -0.256341,0.02167 -4.238662,8.291024 -2.893538,14.74958 1.605922,9.543549 10.764392,17.222018 18.988239,17.407481 4.036022,0.09102 7.725671,-0.645936 12.643182,-2.824007"
     style="opacity:0.2;fill:none;fill-rule:evenodd;stroke:#ffffff;stroke-width:1px;stroke-linecap:round;stroke-linejoin:miter;stroke-opacity:1"
     sodipodi:nodetypes="ccsc" />
</svg>

<svg xmlns="http://www.w3.org/2000/svg" xmlns:xlink="http://www.w3.org/1999/xlink" viewBox="0 0 64 64"><defs><linearGradient id="a"><stop offset="0" stop-color="#fff"/><stop offset=".424" stop-color="#fff" stop-opacity=".235"/><stop offset=".821" stop-color="#fff" stop-opacity=".157"/><stop offset="1" stop-color="#fff" stop-opacity=".392"/></linearGradient><linearGradient id="b"><stop offset="0"/><stop offset="1" stop-opacity="0"/></linearGradient><linearGradient id="c"><stop offset="0" stop-color="#f8b17e"/><stop offset=".232" stop-color="#e35d4f"/><stop offset=".591" stop-color="#c6262e"/><stop offset="1" stop-color="#690b54"/></linearGradient><linearGradient xlink:href="#a" id="g" gradientUnits="userSpaceOnUse" gradientTransform="translate(-135.945 -32.843) scale(2.32687)" x1="71.204" y1="15.369" x2="71.204" y2="40.496"/><radialGradient xlink:href="#b" id="d" gradientUnits="userSpaceOnUse" gradientTransform="matrix(.38235 0 0 .11152 -5.925 36.336)" cx="99.189" cy="185.297" fx="99.189" fy="185.297" r="62.769"/><radialGradient xlink:href="#c" id="f" gradientUnits="userSpaceOnUse" gradientTransform="matrix(0 3.88904 -3.80402 0 64.143 -21.23)" cx="5.202" cy="8.45" fx="5.202" fy="8.45" r="20"/><radialGradient xlink:href="#b" id="e" gradientUnits="userSpaceOnUse" gradientTransform="matrix(.2549 0 0 .07966 6.716 44.24)" cx="99.189" cy="185.297" fx="99.189" fy="185.297" r="62.769"/></defs><path d="M56 57.002a24 7 0 1 1-48 0 24 7 0 1 1 48 0z" opacity=".2" fill="url(#d)"/><path d="M48 59.002a16 5 0 1 1-32 0 16 5 0 1 1 32 0z" opacity=".4" fill="url(#e)"/><path d="M32 2.5C15.723 2.5 2.5 15.723 2.5 32S15.723 61.5 32 61.5 61.5 48.277 61.5 32 48.277 2.5 32 2.5zm.07 9.43a20 20 0 0 1 20 20 20 20 0 0 1-3.1 10.654L21.403 15.02a20 20 0 0 1 10.666-3.09zm-16.896 9.343l27.564 27.565A20 20 0 0 1 32.07 51.93a20 20 0 0 1-20-20 20 20 0 0 1 3.104-10.657z" color="#000" fill="url(#f)" overflow="visible"/><path d="M32 2.5C15.723 2.5 2.5 15.723 2.5 32S15.723 61.5 32 61.5 61.5 48.277 61.5 32 48.277 2.5 32 2.5zm.07 9.43a20 20 0 0 1 20 20 20 20 0 0 1-3.1 10.654L21.403 15.02a20 20 0 0 1 10.666-3.09zm-16.896 9.343l27.564 27.565A20 20 0 0 1 32.07 51.93a20 20 0 0 1-20-20 20 20 0 0 1 3.104-10.657z" opacity=".5" color="#000" stroke="#6f0000" stroke-linecap="round" stroke-linejoin="round" overflow="visible" fill="none"/><path d="M60.5 32c0 15.74-12.76 28.5-28.5 28.5S3.5 47.74 3.5 32 16.26 3.5 32 3.5 60.5 16.26 60.5 32z" opacity=".5" color="#000" fill="none" stroke="url(#g)" stroke-linecap="round" stroke-linejoin="round" overflow="visible"/><path d="M21 16l27 27M14.137 20.854c-.256.022-4.24 8.29-2.893 14.75 1.606 9.544 10.764 17.222 18.988 17.408 4.036.09 7.725-.646 12.643-2.825" fill="none" stroke="#fff" stroke-linecap="round" opacity=".2"/></svg>
